public/svg/feature_icon_9.svg

<svg width="33" height="34" viewBox="0 0 33 34" fill="none" xmlns="http://www.w3.org/2000/svg">
<path d="M15.0132 15.9561H31.0132V32.0942H15.0132V15.9561Z" stroke="#1B2738" stroke-width="2" stroke-linecap="round" stroke-linejoin="round"/>
<path d="M19.0132 19.9907H27.0132" stroke="#1B2738" stroke-width="2" stroke-linecap="round" stroke-linejoin="round"/>
<path d="M19.0132 24.0254H27.0132" stroke="#1B2738" stroke-width="2" stroke-linecap="round" stroke-linejoin="round"/>
<path d="M19.0132 28.0596H22.0132" stroke="#1B2738" stroke-width="2" stroke-linecap="round" stroke-linejoin="round"/>
<path d="M29.9907 11.9216C29.5216 11.1793 28.9089 10.5401 28.1892 10.0423C27.4695 9.54447 26.6576 9.19824 25.8022 9.02433C24.9467 8.85042 24.0652 8.85241 23.2105 9.03019C22.3558 9.20796 21.5455 9.55787 20.828 10.059C20.4773 8.17608 19.6021 6.43291 18.3051 5.03339C17.008 3.63387 15.3426 2.6359 13.5037 2.15623C11.6649 1.67656 9.7286 1.73504 7.92149 2.32482C6.11438 2.91461 4.51116 4.01131 3.29942 5.4866C2.08769 6.96189 1.31754 8.75475 1.07911 10.6554C0.84068 12.5561 1.14382 14.4859 1.95306 16.2192C2.7623 17.9524 4.04417 19.4173 5.64868 20.4425C7.25319 21.4677 9.11399 22.0108 11.0133 22.0083" stroke="#1B2738" stroke-width="2" stroke-linecap="round" stroke-linejoin="round"/>
</svg>

<svg xmlns="http://www.w3.org/2000/svg" width="33" height="34" fill="none"  stroke="#1b2738" stroke-width="2" stroke-linejoin="round" xmlns:v="https://vecta.io/nano"><path d="M15.013 15.956h16v16.138h-16V15.956z"/><path d="M19.013 19.991h8m-8 4.034h8m-8 4.035h3m7.978-16.138a6.52 6.52 0 0 0-1.802-1.879 6.46 6.46 0 0 0-2.387-1.018 6.43 6.43 0 0 0-2.592.006c-.855.178-1.665.528-2.383 1.029a10.12 10.12 0 0 0-2.523-5.026c-1.297-1.4-2.963-2.397-4.801-2.877a9.92 9.92 0 0 0-5.582.169c-1.807.59-3.41 1.686-4.622 3.162a10.13 10.13 0 0 0-2.22 5.169 10.17 10.17 0 0 0 .874 5.564 10.06 10.06 0 0 0 3.696 4.223c1.605 1.025 3.465 1.568 5.365 1.566" stroke-linecap="round"/></svg>
